icons/mustache.svg

<svg width="16" height="16" viewBox="0 0 16 16" fill="none" xmlns="http://www.w3.org/2000/svg">
<path fill-rule="evenodd" clip-rule="evenodd" d="M7.50796 7.16969C7.66915 7.26024 7.86514 7.42057 7.97579 7.56868V7.53164C8.08644 7.38354 8.22687 7.26024 8.38806 7.16969C8.54924 7.07915 8.7276 7.02335 8.91164 7.00591C9.0957 6.98846 9.28136 7.00975 9.45668 7.0684C9.63201 7.12705 9.79311 7.22177 9.92961 7.34645C10.1489 7.54432 10.3589 7.80086 10.5756 8.0657C11.1096 8.71802 11.6847 9.42065 12.5409 9.42065C12.6902 9.39725 12.8302 9.33323 12.9456 9.23559C13.061 9.13796 13.1473 9.01047 13.1951 8.86707C13.2429 8.72368 13.2504 8.5699 13.2166 8.42256C13.1829 8.27522 13.1093 8.14 13.0039 8.03168C13.9299 8.03168 14.4577 9.42064 13.4669 10.3466C12.4982 11.2519 10.9565 11.3387 9.76294 10.8096C9.05326 10.5201 8.43556 10.0432 7.97579 9.42991V9.42064C7.5074 10.0292 6.83259 10.5141 6.12382 10.8096C4.91064 11.3474 3.34588 11.2726 2.41989 10.3466C1.68837 9.61511 1.9569 8.03168 2.88288 8.03168C2.77746 8.14 2.70386 8.27522 2.67013 8.42256C2.6364 8.5699 2.64385 8.72368 2.69164 8.86707C2.73944 9.01047 2.82576 9.13796 2.94114 9.23559C3.05653 9.33323 3.19655 9.39725 3.34588 9.42065C4.20462 9.42065 4.77565 8.72454 5.30863 8.0748C5.52852 7.80675 5.74193 7.54658 5.96641 7.34645C6.10291 7.22177 6.26401 7.12705 6.43934 7.0684C6.61466 7.00975 6.80032 6.98846 6.98437 7.00591C7.16842 7.02335 7.34678 7.07915 7.50796 7.16969Z" fill="#DD497E"/>
</svg>

<svg xmlns="http://www.w3.org/2000/svg" width="16" height="16" fill="none"><path fill="#DD497E" fill-rule="evenodd" d="M7.508 7.17c.161.09.357.25.468.399v-.037a1.324 1.324 0 0 1 1.954-.186c.219.198.429.455.646.72.534.652 1.109 1.355 1.965 1.355a.824.824 0 0 0 .463-1.39c.926 0 1.454 1.39.463 2.316-.969.905-2.51.992-3.704.463a4.23 4.23 0 0 1-1.787-1.38v-.01c-.469.61-1.143 1.094-1.852 1.39-1.213.537-2.778.463-3.704-.463-.732-.732-.463-2.315.463-2.315a.824.824 0 0 0 .463 1.389c.859 0 1.43-.696 1.963-1.346.22-.268.433-.528.657-.729a1.324 1.324 0 0 1 1.542-.176Z" clip-rule="evenodd"/></svg>
